X: 1
T: Clog de Pariseau
M: C|
L: 1/8
R: reel
K: A
|:"F#m"F2 GA F2 GA| FGAB c2cc | fgag "F#m/E"~f2 cc|\
"F#m/D"fgag  "C#7" ~f2 cc|
"F#m"|F2 GA F2 GA| FGAB c2cc |"Bm"fgag "Cdim"f2 cc|\
"C#"~f2 c2 "F#m"f4   :|
"A"e2 fe cAAA|aaAa "Cdim" g2 ~f2|"E/B"EFGA "E"Bcde| "Cdim"fdfe "A/C#"~c2 AA|
"A"e2 fe ~c2AA|aaAa "Cdim" g2 ~f2|"E/B"EFGA "E"Bcde|1 "E/G#"Aaec "A"A2 ee:| \
[2 "E/G#"Aaec "A"A4||

